src/img/icons/instagram.svg

<svg width="16" height="16" viewBox="0 0 16 16" fill="none" xmlns="http://www.w3.org/2000/svg">
<path d="M11.5503 0H4.44969C1.98816 0 0 1.98816 0 4.44969V11.5503C0 14.0118 1.98816 16 4.44969 16H11.5503C14.0118 16 16 14.0118 16 11.5503V4.44969C16 1.98816 14.0118 0 11.5503 0ZM14.5799 11.5503C14.5799 13.2544 13.2544 14.5799 11.5503 14.5799H4.44969C2.74556 14.5799 1.42012 13.2544 1.42012 11.5503V4.44969C1.42012 2.74556 2.74556 1.42012 4.44969 1.42012H11.5503C13.2544 1.42012 14.5799 2.74556 14.5799 4.44969V11.5503Z" fill="#FDFDFD"/>
<path d="M8.04679 3.88165C7.45362 3.79145 6.84796 3.83046 6.27126 3.99599C5.69457 4.16153 5.16043 4.44968 4.70538 4.84077C4.25037 5.23182 3.88519 5.71657 3.63484 6.26183C3.38449 6.80708 3.25488 7.39999 3.25488 7.99999C3.25488 8.59999 3.38449 9.1929 3.63484 9.73815C3.88519 10.2834 4.25037 10.7682 4.70538 11.1592C5.16043 11.5503 5.69457 11.8384 6.27126 12.004C6.84796 12.1695 7.45362 12.2085 8.04679 12.1183C9.03174 11.9686 9.93042 11.4707 10.5798 10.7151C11.2292 9.9596 11.5862 8.99627 11.5862 7.99999C11.5862 7.00371 11.2292 6.04042 10.5798 5.28483C9.93042 4.52924 9.03174 4.03142 8.04679 3.88165ZM8.04679 10.6982C7.65016 10.7728 7.24199 10.7591 6.85129 10.658C6.46063 10.5569 6.09699 10.3709 5.78638 10.1133C5.47576 9.85564 5.22573 9.5327 5.05414 9.16743C4.88255 8.80215 4.7936 8.40354 4.7936 7.99999C4.7936 7.59644 4.88255 7.19783 5.05414 6.83255C5.22573 6.46728 5.47576 6.14434 5.78638 5.88674C6.09699 5.62909 6.46063 5.4431 6.85129 5.342C7.24199 5.2409 7.65016 5.22715 8.04679 5.30178C8.67585 5.4201 9.24376 5.75454 9.65241 6.24721C10.0611 6.73992 10.2847 7.3599 10.2847 7.99999C10.2847 8.64008 10.0611 9.26005 9.65241 9.75277C9.24376 10.2454 8.67585 10.5799 8.04679 10.6982ZM12.3071 2.65088C12.0309 2.65088 11.7661 2.7606 11.5707 2.9559C11.3754 3.15121 11.2657 3.4161 11.2657 3.6923C11.2657 3.82906 11.2927 3.96448 11.345 4.09084C11.3973 4.21718 11.474 4.33201 11.5707 4.4287C11.7661 4.62399 12.0309 4.73374 12.3071 4.73374C12.5912 4.73374 12.8752 4.63904 13.0645 4.44968C13.1677 4.35234 13.2499 4.23496 13.306 4.10472C13.3622 3.97448 13.3912 3.83414 13.3912 3.6923C13.3912 3.55046 13.3622 3.41013 13.306 3.27989C13.2499 3.14965 13.1677 3.03225 13.0645 2.9349C12.8752 2.74556 12.5912 2.65088 12.3071 2.65088Z" fill="#FDFDFD"/>
</svg>

<svg width="16" height="16" fill="none" xmlns="http://www.w3.org/2000/svg"><path d="M11.55 0h-7.1A4.44 4.44 0 000 4.45v7.1A4.44 4.44 0 004.45 16h7.1A4.44 4.44 0 0016 11.55v-7.1A4.44 4.44 0 0011.55 0zm3.03 11.55a3 3 0 01-3.03 3.03h-7.1a3 3 0 01-3.03-3.03v-7.1a3 3 0 013.03-3.03h7.1a3 3 0 013.03 3.03v7.1z" fill="#FDFDFD"/><path d="M8.05 3.88a4.17 4.17 0 10-1.26 8.24 4.17 4.17 0 001.26-8.24zm0 6.82a2.75 2.75 0 11-1.02-5.4 2.75 2.75 0 011.02 5.4zm4.26-8.05a1.04 1.04 0 000 2.08c.28 0 .57-.1.75-.28a1.04 1.04 0 00-.75-1.8z" fill="#FDFDFD"/></svg>
